X: 4
T: Sonny Sweeney's
M: 2/4
L: 1/8
R: polka
K: G Major
|: G/E/ |
D>E G>A | Bd BG/B/ | AG/A/ BA | AG E/F/G/E/ |
D2 G>A | B/c/d B2 | AG/A/ B/c/B/A/ | G2 G- :|
|: G | g2 e/f/g/e/ | dB dB/A/ | G>B AB | 
[1 AG ED | gf/g/ eg/e/ | d/e/d/B/ d>B | G>B AB | AG G- :|
[2 AG E/F/G/E/ | D>E G>A | Bd BG/B/ | AG/A/ B>A | G2 G/A/ ||
